icons/mimetypes/64/audio-x-flac.svg

<?xml version="1.0" encoding="UTF-8" standalone="no"?>
<svg
   xmlns:dc="http://purl.org/dc/elements/1.1/"
   xmlns:cc="http://creativecommons.org/ns#"
   xmlns:rdf="http://www.w3.org/1999/02/22-rdf-syntax-ns#"
   xmlns:svg="http://www.w3.org/2000/svg"
   xmlns="http://www.w3.org/2000/svg"
   xmlns:xlink="http://www.w3.org/1999/xlink"
   xmlns:sodipodi="http://sodipodi.sourceforge.net/DTD/sodipodi-0.dtd"
   xmlns:inkscape="http://www.inkscape.org/namespaces/inkscape"
   width="64"
   version="1.1"
   viewBox="0 0 64 64"
   height="64"
   id="svg2"
   inkscape:version="0.91 r13725"
   sodipodi:docname="audio-x-flac.svg">
  <sodipodi:namedview
     pagecolor="#ffffff"
     bordercolor="#666666"
     borderopacity="1"
     objecttolerance="10"
     gridtolerance="10"
     guidetolerance="10"
     inkscape:pageopacity="0"
     inkscape:pageshadow="2"
     inkscape:window-width="1920"
     inkscape:window-height="1013"
     id="namedview24"
     showgrid="false"
     inkscape:zoom="3.6875"
     inkscape:cx="-17.355932"
     inkscape:cy="29.830508"
     inkscape:window-x="0"
     inkscape:window-y="0"
     inkscape:window-maximized="1"
     inkscape:current-layer="svg2" />
  <defs
     id="defs4">
    <linearGradient
       inkscape:collect="always"
       id="linearGradient4410">
      <stop
         style="stop-color:#383e51"
         id="stop4412" />
      <stop
         offset="1"
         style="stop-color:#655c6f;stop-opacity:0"
         id="stop4414" />
    </linearGradient>
    <linearGradient
       id="linearGradient4351-4">
      <stop
         style="stop-color:#c8e3fe"
         id="stop4353-8" />
      <stop
         offset="1"
         style="stop-color:#ffffff"
         id="stop4355-4" />
    </linearGradient>
    <linearGradient
       inkscape:collect="always"
       id="linearGradient4300-1">
      <stop
         style="stop-color:#22a7f0"
         id="stop4302-6" />
      <stop
         offset="1"
         style="stop-color:#19b5fe"
         id="stop4304-7" />
    </linearGradient>
    <linearGradient
       inkscape:collect="always"
       xlink:href="#linearGradient4351-4"
       id="linearGradient4306-3"
       y1="61"
       y2="3"
       x2="0"
       gradientUnits="userSpaceOnUse"
       gradientTransform="matrix(1.3181818,0,0,1,-10.181818,0)" />
    <linearGradient
       gradientTransform="scale(2,2)"
       inkscape:collect="always"
       xlink:href="#linearGradient4300-1"
       id="linearGradient4261-7"
       x1="16"
       y1="30"
       x2="16"
       y2="2"
       gradientUnits="userSpaceOnUse" />
    <linearGradient
       inkscape:collect="always"
       xlink:href="#linearGradient4410"
       id="linearGradient4427-3"
       y1="63.546017"
       x1="29.072639"
       y2="16.499992"
       x2="74.71431"
       gradientUnits="userSpaceOnUse"
       gradientTransform="matrix(0.95626323,0,0,-0.95626323,-10.446545,76.778336)" />
  </defs>
  <metadata
     id="metadata84">
    <rdf:RDF>
      <cc:Work
         rdf:about="">
        <dc:format>image/svg+xml</dc:format>
        <dc:type
           rdf:resource="http://purl.org/dc/dcmitype/StillImage" />
      </cc:Work>
    </rdf:RDF>
  </metadata>
  <path
     style="fill:url(#linearGradient4306-3);fill-opacity:1.0"
     id="rect3500-3"
     d="M 3,3 3,61 42.545455,61 61,61 61,17 61,3 42.545455,3 Z"
     inkscape:connector-curvature="0"
     sodipodi:nodetypes="cccccccc" />
  <rect
     width="58"
     x="3"
     y="60"
     height="1"
     style="fill:#2e3132;fill-opacity:0.29411801"
     id="rect4169-5" />
  <rect
     width="58"
     x="3"
     y="3"
     height="1"
     style="fill:#ffffff;fill-opacity:0.40983599"
     id="rect4236-6" />
  <path
     inkscape:connector-curvature="0"
     style="color:#4d4d4d;clip-rule:nonzero;display:inline;overflow:visible;visibility:visible;opacity:1;isolation:auto;mix-blend-mode:normal;color-interpolation:sRGB;color-interpolation-filters:linearRGB;solid-color:#000000;solid-opacity:1;fill:url(#linearGradient4261-7);fill-opacity:1.0;fill-rule:nonzero;stroke:none;stroke-width:2;stroke-linecap:square;stroke-linejoin:miter;stroke-miterlimit:4;stroke-dasharray:none;stroke-dashoffset:0;stroke-opacity:1;color-rendering:auto;image-rendering:auto;shape-rendering:auto;text-rendering:auto;enable-background:accumulate"
     d="M 32,8 C 18.74516,8 8,18.74516 8,32 8,45.25484 18.74516,56 32,56 45.25484,56 56,45.25484 56,32 56,18.74516 45.25484,8 32,8 Z"
     id="path4250-0"
     sodipodi:nodetypes="sssss" />
  <path
     inkscape:connector-curvature="0"
     style="opacity:0.2;fill:url(#linearGradient4427-3);fill-opacity:1;fill-rule:evenodd"
     d="M 49.115009,15.440867 47.729972,17 a 21.78915,21.78915 0 0 1 7.327532,16.268354 21.78915,21.78915 0 0 1 -21.78915,21.78915 21.78915,21.78915 0 0 1 -14.461617,-5.520796 L 17.421699,51.095841 29.30669,61 61,61 61,29.30669 49.115009,15.440867 Z"
     id="path4320-2" />
  <path
     inkscape:connector-curvature="0"
     style="color:#000000;color-interpolation:sRGB;color-interpolation-filters:linearRGB;fill:#ffffff;fill-opacity:1;color-rendering:auto;image-rendering:auto;shape-rendering:auto;text-rendering:auto"
     id="rect4204-2"
     d="m 27,21 0,16.052734 C 26.365433,36.404437 25.483041,36 24.5,36 22.561,36 21,37.561 21,39.5 c 0,1.939 1.561,3.5 3.5,3.5 1.904858,0 3.43659,-1.50897 3.490234,-3.400391 l 0.0098,0 L 28,39.5 28,26 l 14,0 0,8.052734 C 41.365433,33.404437 40.483041,33 39.5,33 37.561,33 36,34.561 36,36.5 c 0,1.939 1.561,3.5 3.5,3.5 1.939,0 3.5,-1.561 3.5,-3.5 l 0,-15.5 -1,0 -14,0 -1,0 z m 1,2 14,0 0,2 -14,0 0,-2 z" />
</svg>

<?xml version="1.0" encoding="UTF-8" standalone="no"?>
<svg width="64" version="1.1" xmlns="http://www.w3.org/2000/svg" viewBox="0 0 64 64" height="64" xmlns:xlink="http://www.w3.org/1999/xlink" xmlns:inkscape="http://www.inkscape.org/namespaces/inkscape">
 <defs id="defs4">
  <linearGradient inkscape:collect="always" xlink:href="#linearGradient4300-1" id="linearGradient4306" y1="61" y2="3" x2="0" gradientUnits="userSpaceOnUse"/>
  <linearGradient inkscape:collect="always" xlink:href="#linearGradient4410" id="linearGradient4427" y1="31" x1="54" y2="17" x2="40" gradientUnits="userSpaceOnUse" gradientTransform="matrix(1 0 0 -1 -14 78)"/>
  <linearGradient inkscape:collect="always" id="linearGradient4410">
   <stop style="stop-color:#383e51" id="stop4412"/>
   <stop offset="1" style="stop-color:#655c6f;stop-opacity:0" id="stop4414"/>
  </linearGradient>
  <linearGradient inkscape:collect="always" xlink:href="#linearGradient4351-4" id="linearGradient4357" y1="61" y2="47" x2="0" gradientUnits="userSpaceOnUse"/>
  <linearGradient id="linearGradient4351-4">
   <stop style="stop-color:#c8e3fe" id="stop4353-8"/>
   <stop offset="1" style="stop-color:#ffffff" id="stop4355-4"/>
  </linearGradient>
  <linearGradient inkscape:collect="always" id="linearGradient4300-1">
   <stop style="stop-color:#22a7f0" id="stop4302-6"/>
   <stop offset="1" style="stop-color:#19b5fe" id="stop4304-7"/>
  </linearGradient>
 </defs>
 <metadata id="metadata84"/>
 <path style="fill:url(#linearGradient4306)" id="rect3500" d="M 10 3 L 10 61 L 40 61 L 54 47 L 54 17 L 54 3 L 40 3 L 10 3 z "/>
 <rect width="30" x="10" y="60" height="1" style="fill:#2e3132;fill-opacity:0.294118" id="rect4169"/>
 <rect width="44" x="10" y="3" height="1" style="fill:#ffffff;fill-opacity:0.409836" id="rect4236"/>
 <path inkscape:connector-curvature="0" style="fill:url(#linearGradient4357);fill-rule:evenodd" id="path4314" d="M 54,47 40,61 40,47 Z"/>
 <path inkscape:connector-curvature="0" style="fill:url(#linearGradient4427);opacity:0.2;fill-rule:evenodd" id="path4320" d="M 26,61 40,47 40,61 Z"/>
 <path style="shape-rendering:auto;color-interpolation-filters:linearRGB;fill:#ffffff;image-rendering:auto;text-rendering:auto;color:#000000;color-rendering:auto;color-interpolation:sRGB" id="rect4204" d="M 27 21 L 27 37.052734 C 26.365433 36.404437 25.483041 36 24.5 36 C 22.561 36 21 37.561 21 39.5 C 21 41.439 22.561 43 24.5 43 C 26.404858 43 27.93659 41.49103 27.990234 39.599609 L 28 39.599609 L 28 39.5 L 28 26 L 42 26 L 42 34.052734 C 41.365433 33.404437 40.483041 33 39.5 33 C 37.561 33 36 34.561 36 36.5 C 36 38.439 37.561 40 39.5 40 C 41.439 40 43 38.439 43 36.5 L 43 21 L 42 21 L 28 21 L 27 21 z M 28 23 L 42 23 L 42 25 L 28 25 L 28 23 z "/>
</svg>
